symbols/web/blur_circular/materialsymbolsoutlined/blur_circular_wght500grad200_24px.svg

<svg xmlns="http://www.w3.org/2000/svg" height="24" width="24"><path d="M9.95 11.1q.475 0 .813-.338.337-.337.337-.812 0-.475-.337-.8-.338-.325-.813-.325-.475 0-.8.325-.325.325-.325.8 0 .475.325.812.325.338.8.338Zm0 4.075q.475 0 .813-.325.337-.325.337-.8 0-.475-.337-.813-.338-.337-.813-.337-.475 0-.8.337-.325.338-.325.813 0 .475.325.8.325.325.8.325ZM6.9 10.5q.25 0 .4-.163.15-.162.15-.387t-.15-.388Q7.15 9.4 6.9 9.4q-.2 0-.363.162-.162.163-.162.388t.162.387q.163.163.363.163Zm3.05 7.125q.225 0 .388-.163.162-.162.162-.362 0-.25-.162-.4-.163-.15-.388-.15t-.388.15q-.162.15-.162.4 0 .2.162.362.163.163.388.163ZM6.9 14.6q.25 0 .4-.162.15-.163.15-.388t-.15-.388q-.15-.162-.4-.162-.2 0-.363.162-.162.163-.162.388t.162.388q.163.162.363.162Zm3.05-7.15q.225 0 .388-.15.162-.15.162-.4 0-.2-.162-.363-.163-.162-.388-.162t-.388.162Q9.4 6.7 9.4 6.9q0 .25.162.4.163.15.388.15Zm4.1 3.65q.475 0 .8-.338.325-.337.325-.812 0-.475-.325-.8-.325-.325-.8-.325-.475 0-.812.325-.338.325-.338.8 0 .475.338.812.337.338.812.338Zm0-3.65q.225 0 .388-.15.162-.15.162-.4 0-.2-.162-.363-.163-.162-.388-.162t-.387.162Q13.5 6.7 13.5 6.9q0 .25.163.4.162.15.387.15Zm3.05 7.15q.2 0 .362-.162.163-.163.163-.388t-.163-.388Q17.3 13.5 17.1 13.5q-.25 0-.4.162-.15.163-.15.388t.15.388q.15.162.4.162Zm0-4.1q.2 0 .362-.163.163-.162.163-.387t-.163-.388Q17.3 9.4 17.1 9.4q-.25 0-.4.162-.15.163-.15.388t.15.387q.15.163.4.163ZM12 22.825q-2.25 0-4.225-.85-1.975-.85-3.437-2.312-1.463-1.463-2.313-3.438-.85-1.975-.85-4.225 0-2.25.85-4.225.85-1.975 2.313-3.437Q5.8 2.875 7.775 2.025q1.975-.85 4.225-.85 2.25 0 4.225.85 1.975.85 3.438 2.313 1.462 1.462 2.312 3.437.85 1.975.85 4.225 0 2.25-.85 4.225-.85 1.975-2.312 3.438-1.463 1.462-3.438 2.312-1.975.85-4.225.85Zm0-2.75q3.375 0 5.725-2.35 2.35-2.35 2.35-5.725 0-3.375-2.35-5.725-2.35-2.35-5.725-2.35-3.375 0-5.725 2.35-2.35 2.35-2.35 5.725 0 3.375 2.35 5.725 2.35 2.35 5.725 2.35Zm2.05-2.45q.225 0 .388-.163.162-.162.162-.362 0-.25-.162-.4-.163-.15-.388-.15t-.387.15q-.163.15-.163.4 0 .2.163.362.162.163.387.163Zm0-2.45q.475 0 .8-.325.325-.325.325-.8 0-.475-.325-.813-.325-.337-.8-.337-.475 0-.812.337-.338.338-.338.813 0 .475.338.8.337.325.812.325ZM12 12Z"/></svg>

<svg xmlns="http://www.w3.org/2000/svg" height="24" width="24"><path d="M9.95 11.1Q10.425 11.1 10.763 10.762Q11.1 10.425 11.1 9.95Q11.1 9.475 10.763 9.15Q10.425 8.825 9.95 8.825Q9.475 8.825 9.15 9.15Q8.825 9.475 8.825 9.95Q8.825 10.425 9.15 10.762Q9.475 11.1 9.95 11.1ZM9.95 15.175Q10.425 15.175 10.763 14.85Q11.1 14.525 11.1 14.05Q11.1 13.575 10.763 13.237Q10.425 12.9 9.95 12.9Q9.475 12.9 9.15 13.237Q8.825 13.575 8.825 14.05Q8.825 14.525 9.15 14.85Q9.475 15.175 9.95 15.175ZM6.9 10.5Q7.15 10.5 7.3 10.337Q7.45 10.175 7.45 9.95Q7.45 9.725 7.3 9.562Q7.15 9.4 6.9 9.4Q6.7 9.4 6.537 9.562Q6.375 9.725 6.375 9.95Q6.375 10.175 6.537 10.337Q6.7 10.5 6.9 10.5ZM9.95 17.625Q10.175 17.625 10.338 17.462Q10.5 17.3 10.5 17.1Q10.5 16.85 10.338 16.7Q10.175 16.55 9.95 16.55Q9.725 16.55 9.562 16.7Q9.4 16.85 9.4 17.1Q9.4 17.3 9.562 17.462Q9.725 17.625 9.95 17.625ZM6.9 14.6Q7.15 14.6 7.3 14.438Q7.45 14.275 7.45 14.05Q7.45 13.825 7.3 13.662Q7.15 13.5 6.9 13.5Q6.7 13.5 6.537 13.662Q6.375 13.825 6.375 14.05Q6.375 14.275 6.537 14.438Q6.7 14.6 6.9 14.6ZM9.95 7.45Q10.175 7.45 10.338 7.3Q10.5 7.15 10.5 6.9Q10.5 6.7 10.338 6.537Q10.175 6.375 9.95 6.375Q9.725 6.375 9.562 6.537Q9.4 6.7 9.4 6.9Q9.4 7.15 9.562 7.3Q9.725 7.45 9.95 7.45ZM14.05 11.1Q14.525 11.1 14.85 10.762Q15.175 10.425 15.175 9.95Q15.175 9.475 14.85 9.15Q14.525 8.825 14.05 8.825Q13.575 8.825 13.238 9.15Q12.9 9.475 12.9 9.95Q12.9 10.425 13.238 10.762Q13.575 11.1 14.05 11.1ZM14.05 7.45Q14.275 7.45 14.438 7.3Q14.6 7.15 14.6 6.9Q14.6 6.7 14.438 6.537Q14.275 6.375 14.05 6.375Q13.825 6.375 13.663 6.537Q13.5 6.7 13.5 6.9Q13.5 7.15 13.663 7.3Q13.825 7.45 14.05 7.45ZM17.1 14.6Q17.3 14.6 17.462 14.438Q17.625 14.275 17.625 14.05Q17.625 13.825 17.462 13.662Q17.3 13.5 17.1 13.5Q16.85 13.5 16.7 13.662Q16.55 13.825 16.55 14.05Q16.55 14.275 16.7 14.438Q16.85 14.6 17.1 14.6ZM17.1 10.5Q17.3 10.5 17.462 10.337Q17.625 10.175 17.625 9.95Q17.625 9.725 17.462 9.562Q17.3 9.4 17.1 9.4Q16.85 9.4 16.7 9.562Q16.55 9.725 16.55 9.95Q16.55 10.175 16.7 10.337Q16.85 10.5 17.1 10.5ZM12 22.825Q9.75 22.825 7.775 21.975Q5.8 21.125 4.338 19.663Q2.875 18.2 2.025 16.225Q1.175 14.25 1.175 12Q1.175 9.75 2.025 7.775Q2.875 5.8 4.338 4.338Q5.8 2.875 7.775 2.025Q9.75 1.175 12 1.175Q14.25 1.175 16.225 2.025Q18.2 2.875 19.663 4.338Q21.125 5.8 21.975 7.775Q22.825 9.75 22.825 12Q22.825 14.25 21.975 16.225Q21.125 18.2 19.663 19.663Q18.2 21.125 16.225 21.975Q14.25 22.825 12 22.825ZM12 20.075Q15.375 20.075 17.725 17.725Q20.075 15.375 20.075 12Q20.075 8.625 17.725 6.275Q15.375 3.925 12 3.925Q8.625 3.925 6.275 6.275Q3.925 8.625 3.925 12Q3.925 15.375 6.275 17.725Q8.625 20.075 12 20.075ZM14.05 17.625Q14.275 17.625 14.438 17.462Q14.6 17.3 14.6 17.1Q14.6 16.85 14.438 16.7Q14.275 16.55 14.05 16.55Q13.825 16.55 13.663 16.7Q13.5 16.85 13.5 17.1Q13.5 17.3 13.663 17.462Q13.825 17.625 14.05 17.625ZM14.05 15.175Q14.525 15.175 14.85 14.85Q15.175 14.525 15.175 14.05Q15.175 13.575 14.85 13.237Q14.525 12.9 14.05 12.9Q13.575 12.9 13.238 13.237Q12.9 13.575 12.9 14.05Q12.9 14.525 13.238 14.85Q13.575 15.175 14.05 15.175ZM12 12Q12 12 12 12Q12 12 12 12Q12 12 12 12Q12 12 12 12Q12 12 12 12Q12 12 12 12Q12 12 12 12Q12 12 12 12Z"/></svg>
